assets/svg/icon_replysearch_scale.svg

<svg width="20" height="20" viewBox="0 0 20 20" fill="none" xmlns="http://www.w3.org/2000/svg">
<path d="M11.6048 8.39529C11.332 8.12255 11.332 7.67886 11.6048 7.40612L14.6107 4.40022H12.8014C12.4153 4.40022 12.1022 4.08715 12.1022 3.70109C12.1022 3.31503 12.4153 3.00195 12.8014 3.00195H16.3009C16.687 3.00195 17 3.31503 17 3.70109V7.20061C17 7.58667 16.687 7.89974 16.3009 7.89974C15.9148 7.89974 15.6018 7.58667 15.6018 7.20061V5.39131L12.5959 8.39721C12.3231 8.66995 11.8794 8.66995 11.6067 8.39721L11.6048 8.39529ZM3.69917 17H7.19869C7.58475 17 7.89782 16.687 7.89782 16.3009C7.89782 15.9148 7.58475 15.6018 7.19869 15.6018H5.38939L8.39529 12.5959C8.66418 12.3174 8.6565 11.8756 8.378 11.6067C8.10718 11.3455 7.67694 11.3455 7.40612 11.6067L4.40022 14.6126V12.8033C4.40022 12.4172 4.08715 12.1042 3.70109 12.1042C3.31503 12.1042 3.00195 12.4172 3.00195 12.8033V16.3028C3.00195 16.6889 3.31503 17.002 3.70109 17.002L3.69917 17Z" fill="#727689"/>
</svg>

<svg xmlns="http://www.w3.org/2000/svg" width="20" height="20" fill="none"><path fill="#727689" d="M11.605 8.395a.7.7 0 0 1 0-.989L14.61 4.4H12.8a.7.7 0 0 1 0-1.398h3.5a.7.7 0 0 1 .699.7V7.2a.7.7 0 0 1-1.398 0V5.39l-3.006 3.006a.7.7 0 0 1-.99 0zM3.699 17h3.5a.7.7 0 0 0 0-1.398h-1.81l3.006-3.006a.699.699 0 0 0-.989-.99L4.4 14.614v-1.81a.7.7 0 0 0-1.398 0v3.5a.7.7 0 0 0 .7.699z"/></svg>
